X:5561
T:Ring O' Bells
O:england
M:2/4
C:
S:Bacon (Jour EFDSS)
N:
A:Lichfield
R:Reel
%P:(AB)$^2$.A$^2$B$^2$
P:(AB)2.A2B2
K:G
I:speed 400
P:A
{A}B4  A4 | G2c2 B4   | A2G2 F2G2  | B4   A4 |\
B4  A4 | G2c2 B4   | A2d2 d2^c2 | d8      ||\
P:B
d4  =c4 | B2g2 e4   | d4   c4    | B2g2 e4 |\
d2G2 c4 | B2F2 G2c2 | B4   A3G   | G8      ||


